svg/work-doodle-zaga.svg

<svg xmlns="http://www.w3.org/2000/svg" width="303" height="400" fill="none"><path stroke="#15CE79" stroke-linecap="round" stroke-width="3" d="M124.75 337.25c0 4.847 1.5 9.5 1.5 14.306 0 1.206.351 1.944-1 1.944m.25 1c-4.887 0-9.65 1.356-14.542 1.486-4.356.116-9.257-1.342-13.014-3.542-3.45-2.019-5.097-5.43-6.666-8.916-.33-.734-.428-1.996-.917-2.625-.454-.584-.61 2.637-.611 2.791-.053 5.939.202 11.762.875 17.667.532 4.668 1.321 9.439 1.375 14.139.004.339.074 2.616.36 2.194.73-1.072 1.405-2.166 2.168-3.222 3.212-4.448 8.971-5.344 13.972-6.472 4.421-.997 8.906-2.416 13.375-3.111 1.783-.278 7.179-.639 5.375-.639-1.144 0-1.352.001-1.236 1.278.423 4.653.486 9.294.486 13.972 0 4.369 1 8.676 1 13.055 0 .953-.25 1.874-.25 2.848v1.347m36 1.25c0-10.545-2.437-21.062-5.75-31-.366-1.097-.5-1.984-.5-3.125 0-.617 4.823-1.75 5.306-1.875 6.264-1.624 13.191-1.038 19.611-1 2.191.013 4.268.039 6.027 1.5 1.89 1.569 3.276 3.668 4.778 5.583 1.254 1.599 2.31 2.988 3.028 4.903.393 1.047.698 2.272 1.194 3.264.387.773.177-2.449.167-2.556-.305-3.229-.266-6.472-.611-9.694-.706-6.59-1.755-13.176-2.625-19.75-.558-4.218-1.375-8.556-1.375-12.806 0-.199-.057-2.583.25-2.583.421 0-1.121 2.618-1.181 2.695-4.028 5.197-8.861 8.925-14.805 11.791-3.985 1.921-8.376 3.467-12.625 4.709-2.622.765-5.665 1.194-8.389 1.194-1.664 0-1.737-.842-2.111-2.361-.537-2.181-.639-4.152-.639-6.389m-33-71c1.759-3.958.5-10.247.5-14.528 0-2.626-.5-5.237-.5-7.722 0-1.892-1-2.954-1-4.5 0-3.089 2.071-3.707 5.056-4.25 5.414-.984 10.906-3 16.444-3h5.5c1.996 0 1.963.186 2 2.222.141 7.758 0 31.037 0 23.278"/><path stroke="#15CE79" stroke-linecap="round" stroke-width="3" d="M120.5 251.5c3.42-4.446 11.793-6.071 16.889-7.278.969-.229 8.743-1.985 8.111-.722"/></svg>

<svg width="303" height="400" viewBox="0 0 303 400" fill="none" xmlns="http://www.w3.org/2000/svg">
<path d="M124.75 337.25C124.75 342.097 126.25 346.75 126.25 351.556C126.25 352.762 126.601 353.5 125.25 353.5" stroke="#15CE79" stroke-width="3" stroke-linecap="round"/>
<path d="M125.5 354.5C120.613 354.5 115.85 355.856 110.958 355.986C106.602 356.102 101.701 354.644 97.9443 352.444C94.4946 350.425 92.8466 347.014 91.2776 343.528C90.9475 342.794 90.8501 341.532 90.3609 340.903C89.9069 340.319 89.7512 343.54 89.7498 343.694C89.6973 349.633 89.9521 355.456 90.6248 361.361C91.1567 366.029 91.9464 370.8 91.9998 375.5C92.0037 375.839 92.0741 378.116 92.3609 377.694C93.0904 376.622 93.7652 375.528 94.5276 374.472C97.7405 370.024 103.499 369.128 108.5 368C112.921 367.003 117.406 365.584 121.875 364.889C123.658 364.611 129.054 364.25 127.25 364.25C126.106 364.25 125.898 364.251 126.014 365.528C126.437 370.181 126.5 374.822 126.5 379.5C126.5 383.869 127.5 388.176 127.5 392.555C127.5 393.508 127.25 394.429 127.25 395.403C127.25 396.125 127.25 399.145 127.25 396.75" stroke="#15CE79" stroke-width="3" stroke-linecap="round"/>
<path d="M163.25 398C163.25 387.455 160.813 376.938 157.5 367C157.134 365.903 157 365.016 157 363.875C157 363.258 161.823 362.125 162.306 362C168.57 360.376 175.497 360.962 181.917 361C184.108 361.013 186.185 361.039 187.944 362.5C189.834 364.069 191.22 366.168 192.722 368.083C193.976 369.682 195.032 371.071 195.75 372.986C196.143 374.033 196.448 375.258 196.944 376.25C197.331 377.023 197.121 373.801 197.111 373.694C196.806 370.465 196.845 367.222 196.5 364C195.794 357.41 194.745 350.824 193.875 344.25C193.317 340.032 192.5 335.694 192.5 331.444C192.5 331.245 192.443 328.861 192.75 328.861C193.171 328.861 191.629 331.479 191.569 331.556C187.541 336.753 182.708 340.481 176.764 343.347C172.779 345.268 168.388 346.814 164.139 348.056C161.517 348.821 158.474 349.25 155.75 349.25C154.086 349.25 154.013 348.408 153.639 346.889C153.102 344.708 153 342.737 153 340.5" stroke="#15CE79" stroke-width="3" stroke-linecap="round"/>
<path d="M120 269.5C121.759 265.542 120.5 259.253 120.5 254.972C120.5 252.346 120 249.735 120 247.25C120 245.358 119 244.296 119 242.75C119 239.661 121.071 239.043 124.056 238.5C129.47 237.516 134.962 235.5 140.5 235.5C142.333 235.5 144.167 235.5 146 235.5C147.996 235.5 147.963 235.686 148 237.722C148.141 245.48 148 268.759 148 261" stroke="#15CE79" stroke-width="3" stroke-linecap="round"/>
<path d="M120.5 251.5C123.92 247.054 132.293 245.429 137.389 244.222C138.358 243.993 146.132 242.237 145.5 243.5" stroke="#15CE79" stroke-width="3" stroke-linecap="round"/>
</svg>
